X: 420
T: The Ashtree Grove
N:"Slow" "collected by J.O'Neill"
N:Irish title: coillte oinseoga
B:O'Neill's 420
Z:Transcribed by henrik.norbeck@mailbox.swipnet.se
M:3/4
L:1/8
K:D
DE | F2 D2 EF | G2 A2 AG | E2 D2 D2 | D4 (3ABc |
d2 d2 ed | =c2 B2 AG | E2 G2 B2 | A4 (3ABc |
d2 d2 ed | =c2 BA GE | G2 A2 B2 | A4 AG |
F2 D2 EF | G2 A2 AG | E2 D2 D2 | D4 ||


